X:1638
T:Polska från Sätila
O:Sätila, Västergötland
S:efter Arne Andersson
S:efter farmodern
B:25 Västgötalåtar, sid 15, Göteborgs Spelmansgille
Z:Per Bergsten, 2009-09-04
R:Polska
M:3/4
L:1/8
K:F
de/d/ A2 F2 | EF/E/ D2 A,2 | (3A,^CE (A>^c) e>c | {/^c}d>e d>c A2 |
!downbow! de/d/ A2 F2 | EF/E/ D2 A,2 | (3A,^CE (A>^c) e>c | d2 [Fd]2 z2 :|
|: c>B G>E C>E |(F>E) (F>G) A2 | (a>g) e>^c A>c | (d>^c) (d>e) f2 |
(d>B) G>B d>B | (A>F) D2 FG/F/ | E>^C A,>C E>F | D2 [DA]2 z2 :|
(:musicend:)
(:music:)
